tools/download-figma-icons/icons/outlined-medium/football.svg

<svg width="24" height="25" viewBox="0 0 24 25" fill="none" xmlns="http://www.w3.org/2000/svg">
<path fill-rule="evenodd" clip-rule="evenodd" d="M18.8182 19.7551C17.8958 20.5611 16.8279 21.2035 15.6812 21.641C15.5582 21.6876 15.4373 21.5592 15.4884 21.4377L16.2696 19.593C16.3454 19.4129 16.518 19.2996 16.7086 19.2996C16.7251 19.2996 16.7409 19.3004 16.7582 19.3019L18.7296 19.4895C18.8609 19.5022 18.9172 19.6688 18.8182 19.7551ZM6.53616 18.9334C6.74178 18.9357 6.92339 19.0693 6.98718 19.2659L7.56579 21.0445C7.60706 21.1713 7.47273 21.2906 7.35341 21.2306C6.31477 20.709 5.36094 20.0073 4.55194 19.1698C4.45964 19.0738 4.53393 18.9094 4.66676 18.9109L6.53616 18.9334ZM21.2766 7.46716C21.7847 8.49154 22.1134 9.5767 22.2575 10.7046C22.2748 10.839 22.1149 10.926 22.0091 10.842L20.5457 9.66676C20.3843 9.53768 20.3243 9.32004 20.3949 9.12643L20.996 7.48367C21.0417 7.35985 21.2189 7.34934 21.2766 7.46716ZM15.2588 15.6201C15.1965 15.5038 15.1845 15.3642 15.2265 15.2397L16.2981 12.0209C16.3439 11.8844 16.4467 11.7755 16.5826 11.7245L18.9345 10.8194C19.0959 10.7587 19.2767 10.7879 19.4088 10.8937C19.4088 10.8937 21.2489 12.3661 22.0624 13.0115C22.196 13.1166 22.2643 13.2922 22.2403 13.4663C22.0234 15.0063 21.4681 16.4464 20.5893 17.7484C20.4887 17.9 20.3153 17.9743 20.1382 17.9623C19.5649 17.9023 16.6013 17.6074 16.5691 17.6074H16.5683C16.4085 17.5916 16.2674 17.4985 16.1908 17.3552L15.2588 15.6201ZM8.60067 18.1169L9.91698 16.4794C10.0093 16.3646 10.1451 16.3 10.2975 16.3L13.4674 16.3375C13.643 16.3398 13.8029 16.4374 13.8862 16.5912L14.8055 18.3067C14.8753 18.4358 14.8828 18.5867 14.8257 18.7232C14.8257 18.7232 13.8794 20.9739 13.4704 21.9675C13.4036 22.1303 13.2513 22.2444 13.0757 22.2654C12.6817 22.3097 12.3244 22.3322 11.983 22.3322C11.3128 22.3322 10.6217 22.2602 9.92973 22.1176C9.75563 22.0823 9.61379 21.957 9.55976 21.7911C8.89635 19.7266 8.63294 18.9064 8.47985 18.5807L8.51737 18.5679C8.46709 18.4126 8.49861 18.2437 8.60067 18.1169ZM1.98011 13.2434L4.59997 11.0648C4.68627 10.9928 4.79509 10.953 4.9069 10.953C4.95193 10.953 4.99771 10.9597 5.04349 10.9732L7.37742 11.6599C7.53051 11.7042 7.65058 11.8213 7.69936 11.9729L8.68322 15.0017C8.73425 15.1563 8.70273 15.3259 8.60142 15.4527L7.28436 17.0887C7.19205 17.2043 7.05547 17.2689 6.90313 17.2689L3.3542 17.2223C3.18085 17.2201 3.0195 17.1203 2.9332 16.9612C2.37636 15.9435 2.00038 14.8486 1.81426 13.7072C1.78574 13.5301 1.84878 13.3522 1.98011 13.2434ZM7.63409 2.62819C7.79844 2.55239 7.99205 2.57041 8.13014 2.67022L10.807 4.6004C10.9279 4.68745 11.0006 4.82253 11.0066 4.97112L11.1185 7.80711C11.1252 7.96921 11.0509 8.12155 10.9196 8.21611L8.40256 10.0285C8.28098 10.1155 8.12714 10.1425 7.9853 10.0998L5.31592 9.31403C5.17333 9.27201 5.06001 9.16919 5.00523 9.02886L3.83526 6.07505C3.77147 5.91595 3.79999 5.72984 3.90956 5.591C4.90467 4.32798 6.1932 3.3036 7.63409 2.62819ZM11.8682 3.13923C11.8006 3.19026 11.7083 3.19176 11.64 3.14148L10.1751 2.08634C10.0678 2.00904 10.1061 1.83493 10.2359 1.81242C11.2408 1.63531 12.2531 1.6098 13.2873 1.74863C13.4209 1.76589 13.4644 1.94225 13.3578 2.02255L11.8682 3.13923ZM19.8718 5.70728L18.6808 8.95377C18.6328 9.0851 18.5307 9.18866 18.4017 9.23819L16.1075 10.12C15.9567 10.1793 15.7871 10.1575 15.6542 10.0637L12.9916 8.17404C12.8708 8.08849 12.7957 7.9489 12.7897 7.79956L12.6742 4.88178C12.6682 4.72418 12.7395 4.57409 12.867 4.47878L15.4711 2.52233C15.5522 2.4623 15.655 2.42852 15.7615 2.42852C15.8283 2.42852 15.8944 2.44128 15.9559 2.4668C17.4141 3.07617 18.7364 4.027 19.7773 5.21723C19.8966 5.35306 19.9326 5.54143 19.8718 5.70728ZM13.7661 14.3384C13.7008 14.535 13.5184 14.6633 13.2993 14.6671L10.6644 14.6355C10.4581 14.6333 10.2765 14.4997 10.2127 14.3031L9.39391 11.7868C9.32862 11.5864 9.40067 11.3703 9.57177 11.2472L11.7061 9.70727C11.7886 9.64798 11.8862 9.61646 11.9882 9.61646C12.0881 9.61646 12.1849 9.64723 12.2674 9.70577L14.4362 11.248C14.6104 11.3718 14.6816 11.5902 14.6134 11.7928L13.7661 14.3384ZM1.72871 10.9396C1.83753 9.91819 2.10169 8.90432 2.50468 7.95498C2.55647 7.83191 2.73658 7.83641 2.78611 7.96099L3.38647 9.46791C3.46377 9.66228 3.40749 9.88366 3.24689 10.0165L1.97861 11.0709C1.87505 11.1564 1.71445 11.0731 1.72871 10.9396ZM23.9985 11.9031C23.991 11.2795 23.934 10.6551 23.8296 10.036C23.5963 8.65887 23.1355 7.32456 22.4458 6.10956C21.471 4.39176 20.0728 2.92236 18.4061 1.86197C16.5097 0.654477 14.2966 0.00833125 12.0482 7.61954e-05C9.52814 -0.00892931 7.04637 0.780554 5.00062 2.25145C4.34622 2.72199 3.7391 3.25857 3.19352 3.85068C0.883603 6.35647 -0.236082 9.61496 0.0415875 13.028C0.206689 15.0535 0.900113 17.0197 2.03631 18.7053C3.15374 20.3608 4.68393 21.7281 6.45426 22.6519C8.60658 23.7746 11.0883 24.2106 13.4958 23.909C15.7682 23.6245 17.946 22.679 19.6999 21.2043C21.1978 19.951 22.3835 18.3345 23.125 16.5274C23.7298 15.0543 24.0203 13.4821 23.9985 11.9031Z" fill="black"/>
</svg>

<svg xmlns="http://www.w3.org/2000/svg" width="24" height="25" fill="none" viewBox="0 0 24 25"><path fill="currentColor" fill-rule="evenodd" d="M18.818 19.755a10.4 10.4 0 0 1-3.137 1.886c-.123.047-.244-.082-.193-.203l.782-1.845a.475.475 0 0 1 .488-.291l1.972.188c.13.012.187.179.088.265m-12.282-.822a.48.48 0 0 1 .451.333l.579 1.779c.041.126-.093.246-.213.186a10.4 10.4 0 0 1-2.801-2.061c-.092-.096-.018-.26.115-.26zm14.74-11.466a10.2 10.2 0 0 1 .982 3.238c.017.134-.143.221-.249.137l-1.463-1.175a.48.48 0 0 1-.151-.54l.601-1.643c.046-.124.223-.135.28-.017M15.26 15.62a.48.48 0 0 1-.033-.38l1.072-3.22a.48.48 0 0 1 .285-.295l2.352-.906a.49.49 0 0 1 .474.075s1.84 1.472 2.653 2.117a.5.5 0 0 1 .178.455 10.1 10.1 0 0 1-1.65 4.282.5.5 0 0 1-.452.214c-.573-.06-3.537-.355-3.569-.355a.48.48 0 0 1-.378-.252zM8.6 18.117l1.316-1.638a.48.48 0 0 1 .38-.179l3.17.037c.176.003.336.1.42.254l.918 1.716c.07.129.078.28.02.416 0 0-.946 2.25-1.355 3.245a.49.49 0 0 1-.394.297 10 10 0 0 1-1.093.067c-.67 0-1.361-.072-2.053-.214a.49.49 0 0 1-.37-.327c-.664-2.064-.927-2.885-1.08-3.21l.037-.013a.48.48 0 0 1 .084-.451m-6.62-4.874 2.62-2.178a.48.48 0 0 1 .443-.092l2.334.687a.48.48 0 0 1 .322.313l.984 3.029a.48.48 0 0 1-.082.45L7.284 17.09a.48.48 0 0 1-.38.18l-3.55-.047a.49.49 0 0 1-.42-.26 10.2 10.2 0 0 1-1.12-3.255.5.5 0 0 1 .166-.464M7.633 2.628a.5.5 0 0 1 .496.042l2.677 1.93c.12.087.194.223.2.371l.111 2.836a.48.48 0 0 1-.198.41l-2.517 1.811a.48.48 0 0 1-.418.072l-2.67-.786a.47.47 0 0 1-.31-.285l-1.17-2.954a.49.49 0 0 1 .075-.484 10.4 10.4 0 0 1 3.724-2.963m4.234.511a.19.19 0 0 1-.228.002l-1.465-1.055c-.107-.077-.069-.251.06-.274a9.9 9.9 0 0 1 3.052-.063c.134.017.177.193.07.274zm8.004 2.568L18.68 8.954a.48.48 0 0 1-.28.284l-2.293.882a.48.48 0 0 1-.454-.056l-2.662-1.89a.48.48 0 0 1-.202-.374l-.116-2.918a.48.48 0 0 1 .193-.403l2.604-1.957a.51.51 0 0 1 .485-.056c1.458.61 2.78 1.561 3.821 2.751a.49.49 0 0 1 .095.49m-6.106 8.631a.49.49 0 0 1-.467.33l-2.635-.032a.48.48 0 0 1-.451-.333l-.82-2.516a.48.48 0 0 1 .179-.54l2.134-1.54a.48.48 0 0 1 .561-.001l2.17 1.542a.48.48 0 0 1 .176.545zM1.73 10.94c.109-1.022.373-2.036.776-2.985.051-.123.232-.119.281.006l.6 1.507a.48.48 0 0 1-.14.549L1.98 11.07c-.104.085-.265.002-.25-.131m22.27.963a12 12 0 0 0-.17-1.867 12 12 0 0 0-1.383-3.926 12.2 12.2 0 0 0-4.04-4.248A11.94 11.94 0 0 0 12.048 0c-2.52-.009-5.002.78-7.047 2.251a12 12 0 0 0-1.807 1.6C.884 6.356-.236 9.615.042 13.028a11.9 11.9 0 0 0 1.994 5.677 12.1 12.1 0 0 0 4.418 3.947 12.06 12.06 0 0 0 7.042 1.257 12 12 0 0 0 6.204-2.705 12.1 12.1 0 0 0 3.425-4.677c.605-1.473.895-3.045.874-4.624" clip-rule="evenodd"/></svg>
